Newaita-dark/apps/48/albert.svg

<svg height="48pt" viewBox="0 0 48 48" width="48pt" xmlns="http://www.w3.org/2000/svg" xmlns:xlink="http://www.w3.org/1999/xlink"><linearGradient id="a" gradientUnits="userSpaceOnUse" x1="23.81478" x2="23.81478" y1="42.0509045" y2="44.03547050005"><stop offset="0" stop-opacity=".27451"/><stop offset="1" stop-opacity="0"/></linearGradient><linearGradient id="b"><stop offset="0" stop-opacity=".313726"/><stop offset=".222222" stop-opacity=".27451"/><stop offset="1" stop-opacity="0"/></linearGradient><radialGradient id="c" cx="450.908936" cy="189.579361" gradientTransform="matrix(.00000026 -.117199 -.210958 -.00000015 79.684395 95.392999)" gradientUnits="userSpaceOnUse" r="21.166656" xlink:href="#b"/><radialGradient id="d" cx="450.908936" cy="189.579361" gradientTransform="matrix(-.00000026 .117199 .210958 .00000015 -31.80678 -11.291218)" gradientUnits="userSpaceOnUse" r="21.166656" xlink:href="#b"/><radialGradient id="e" cx="450.908936" cy="189.579361" gradientTransform="matrix(-.00000026 -.117199 .210958 -.00000015 -31.80678 95.392999)" gradientUnits="userSpaceOnUse" r="21.166656" xlink:href="#b"/><radialGradient id="f" cx="450.908936" cy="189.579361" gradientTransform="matrix(.00000026 .117199 -.210958 .00000015 79.684393 -11.291219)" gradientUnits="userSpaceOnUse" r="21.166656" xlink:href="#b"/><linearGradient id="g" gradientUnits="userSpaceOnUse" x1="23.814786" x2="23.814786" y1="42.0509005" y2="4.34415549995"><stop offset="0" stop-color="#616161"/><stop offset="1" stop-color="#757575"/></linearGradient><linearGradient id="h" gradientUnits="userSpaceOnUse" x1="23.814786" x2="23.814786" y1="42.0509005" y2="4.3441570001"><stop offset="0" stop-color="#d4e157"/><stop offset="1" stop-color="#dce775"/></linearGradient><path d="m7.691406 42.050781h32.496094v1.984375h-32.496094zm0 0" fill="url(#a)"/><path d="m40.1875 42.050781h3.96875v-1.984375h-3.96875zm0 0" fill="url(#c)"/><path d="m7.691406 42.050781h-3.96875v1.984375h3.96875zm0 0" fill="url(#d)"/><path d="m7.691406 42.050781h-3.96875v-1.984375h3.96875zm0 0" fill="url(#e)"/><path d="m40.1875 42.050781h3.96875v1.984375h-3.96875zm0 0" fill="url(#f)"/><path d="m5.457031 4.34375c-.023437 0-.050781 0-.078125.003906-.050781 0-.097656.007813-.148437.011719-.074219.011719-.148438.03125-.214844.050781-.046875.015625-.09375.03125-.136719.050782-.089844.039062-.175781.082031-.253906.136718-.039062.027344-.078125.054688-.117188.085938-.035156.03125-.070312.0625-.105468.09375-.03125.035156-.0625.070312-.09375.105468-.015625.019532-.03125.039063-.042969.058594-.03125.039063-.058594.078125-.082031.117188-.035156.0625-.070313.125-.097656.195312-.007813.019532-.019532.042969-.027344.066406-.007813.023438-.015625.046876-.023438.070313-.007812.023437-.011718.046875-.019531.070313-.011719.046874-.023437.09375-.03125.144531 0 .023437-.003906.050781-.007813.074219-.003906.050781-.007812.101562-.007812.152343v34.730469c0 .824219.664062 1.488281 1.488281 1.488281h36.714844c.824219 0 1.488281-.664062 1.488281-1.488281v-34.730469c0-.308593-.09375-.59375-.253906-.832031-.027344-.039062-.054688-.078125-.085938-.117188-.027343-.035156-.0625-.070312-.09375-.105468-.035156-.03125-.070312-.0625-.105468-.09375-.039063-.03125-.078125-.058594-.117188-.085938-.078125-.054687-.164062-.097656-.25-.136718-.046875-.019532-.089844-.035157-.136718-.050782-.070313-.019531-.144532-.039062-.21875-.050781-.046876-.003906-.097657-.011719-.148438-.011719-.027344-.003906-.050781-.003906-.078125-.003906zm0 0" fill="url(#g)"/><path d="m5.457031 4.441406c-.824219 0-1.488281.664063-1.488281 1.488282v.246093c0-.824219.664062-1.488281 1.488281-1.488281h36.714844c.824219 0 1.488281.664062 1.488281 1.488281v-.246093c0-.824219-.664062-1.488282-1.488281-1.488282zm0 0" fill="#fff" fill-opacity=".392157"/><path d="m5.457031 41.90625c-.824219 0-1.488281-.664062-1.488281-1.488281v-.246094c0 .824219.664062 1.488281 1.488281 1.488281h36.714844c.824219 0 1.488281-.664062 1.488281-1.488281v.246094c0 .824219-.664062 1.488281-1.488281 1.488281zm0 0" fill="#030303" fill-opacity=".235294"/><path d="m5.457031 4.203125c-.898437 0-1.628906.730469-1.628906 1.628906v34.730469c0 .898438.730469 1.628906 1.628906 1.628906h36.714844c.898437 0 1.628906-.730468 1.628906-1.628906v-34.730469c0-.898437-.730469-1.628906-1.628906-1.628906zm0 .28125h36.714844c.75 0 1.347656.597656 1.347656 1.347656v34.730469c0 .75-.597656 1.347656-1.347656 1.347656h-36.714844c-.75 0-1.347656-.597656-1.347656-1.347656v-34.730469c0-.75.597656-1.347656 1.347656-1.347656zm0 0" fill="#212121"/><path d="m38.699219 13.402344c-2.632813 2.003906-6.3125 5.148437-10.425781 7.882812-1.714844-3.433594-3.234376-7.304687-7.007813-7.800781-6.316406-.824219-9.929687 4.734375-12.347656 10.085937-.320313.710938-1.859375 3.984376-1.214844 6.105469.621094 2.039063 3.445313 1.605469 5.363281 1.136719 3.207032-.78125 5.402344-1.691406 7.894532-3.125 1.21875-.710938 2.332031-1.382812 3.351562-2.019531.292969.445312.59375.886719.902344 1.3125 1.394531 1.929687 3.304687 3.878906 5.042968 4.140625 4.210938.289062 7.21875-2.882813 9.925782-5.847656l-.003906-.003907c-4.246094 2.222657-5.898438 2.09375-8.109376.878907-1.324218-.730469-2.285156-2.058594-3.132812-3.59375 4.171875-3.058594 6.457031-5.601563 9.761719-9.152344zm-21.878907 2.945312c1.582032-.003906 2.636719 1.328125 3.535157 2.679688 1.015625 1.683594 1.988281 3.449218 3.015625 5.144531-3.023438 1.519531-6.140625 2.550781-9.148438 2.582031-2.183594.019532-4.523437-3.195312-3.179687-5.597656.839843-1.507812 1.925781-2.914062 3.035156-3.695312 1.070313-.789063 1.96875-1.109376 2.742187-1.113282zm0 0" fill="url(#h)"/><path d="m38.699219 13.402344c-2.632813 2.003906-6.3125 5.148437-10.425781 7.882812-1.714844-3.433594-3.234376-7.304687-7.007813-7.800781-6.316406-.824219-9.929687 4.734375-12.347656 10.085937-.285157.628907-1.53125 3.285157-1.351563 5.359376.140625-1.890626 1.105469-3.953126 1.351563-4.496094 2.417969-5.351563 6.03125-10.910156 12.347656-10.085938 3.773437.496094 5.292969 4.367188 7.007813 7.800782 2.683593-1.785157 5.171874-3.734376 7.316406-5.4375.996094-1.027344 1.992187-2.109376 3.109375-3.308594zm-28.023438 9.730468c-.28125 2.171876 1.6875 4.503907 3.546875 4.484376 3.007813-.027344 6.125-1.0625 9.148438-2.582032-.132813-.222656-.269532-.445312-.398438-.667968-2.898437 1.410156-5.875 2.359374-8.75 2.386718-1.613281.015625-3.3125-1.738281-3.546875-3.621094zm18.609375.027344c-.113281.085938-.230468.171875-.347656.257813.847656 1.535156 1.808594 2.863281 3.132812 3.59375 1.933594 1.058593 3.441407 1.292969 6.625-.148438.511719-.523437 1.003907-1.0625 1.488282-1.589843l-.003906-.003907c-4.246094 2.222657-5.898438 2.09375-8.109376.878907-1.148437-.632813-2.019531-1.714844-2.785156-2.988282zm0 0" fill="#fff" fill-opacity=".588235"/><path d="m38.699219 14.308594c-.945313.71875-2.039063 1.59375-3.226563 2.539062-1.914062 1.964844-3.828125 3.734375-6.535156 5.71875.117188.214844.238281.421875.359375.625 3.945313-2.941406 6.191406-5.4375 9.402344-8.882812zm-21.878907 2.050781c-.773437.003906-1.671874.324219-2.742187 1.117187-1.109375.78125-2.195313 2.1875-3.035156 3.691407-.351563.632812-.449219 1.320312-.363281 1.992187.050781-.375.167968-.746094.363281-1.101562.839843-1.503906 1.925781-2.910156 3.035156-3.691406 3.253906-2.414063 4.9375-.449219 6.277344 1.5625.878906 1.457031 1.726562 2.976562 2.601562 4.457031.140625-.066407.277344-.132813.414063-.203125-1.027344-1.691406-2-3.460938-3.015625-5.144532-.898438-1.351562-1.953125-2.683593-3.535157-2.679687zm7.492188 9.320313c-1.019531.640624-2.132812 1.308593-3.351562 2.023437-2.492188 1.429687-4.6875 2.339844-7.894532 3.125-1.917968.464844-4.742187.902344-5.363281-1.136719-.070313-.234375-.113281-.480468-.136719-.738281-.042968.574219-.011718 1.132813.136719 1.628906.621094 2.039063 3.445313 1.605469 5.363281 1.136719 3.207032-.78125 5.402344-1.695312 7.894532-3.125 1.21875-.714844 2.332031-1.382812 3.351562-2.023438.292969.449219.59375.886719.902344 1.3125 1.394531 1.929688 3.304687 3.882813 5.042968 4.144532 4.210938.285156 7.21875-2.882813 9.925782-5.851563h-.003906c-.550782.289063-1.058594.535157-1.53125.75-2.320313 2.378907-4.957032 4.445313-8.390626 4.210938-1.738281-.261719-3.648437-2.214844-5.042968-4.144531-.308594-.425782-.609375-.863282-.902344-1.3125zm0 0" fill-opacity=".235294"/><path d="m1560.008589 540.263396c-106.131603 80.779692-254.463902 207.539247-420.274849 317.764948-69.12726-138.411987-130.381256-294.460085-282.492723-314.458177-254.621367-33.225175-400.276757 190.847927-497.747769 406.575369-12.912153 28.658682-74.953476 160.614592-48.971704 246.118242 25.036981 82.196879 138.884382 64.718233 216.199838 45.822398 129.279-31.493057 217.77449-68.182468 318.237343-125.972228 49.129169-28.658683 94.006776-55.742712 135.105215-81.409553 11.809897 17.951042 23.934724 35.74462 36.374481 52.908336 56.215108 77.787851 133.215632 156.363029 203.287685 166.913203 169.747578 11.652431 290.995848-116.209381 400.119292-235.725533l-.157466-.157466c-171.164766 89.597748-237.772582 84.401394-326.897933 35.42969-53.380732-29.446009-92.117193-82.984206-126.28716-144.868063 168.172926-123.295319 260.290118-225.805221 393.50575-368.941166zm-881.963067 118.728826c63.773441-.157465 106.289068 53.538197 142.506084 108.021186 40.940974 67.867539 80.14983 139.041848 121.5632 207.381782-121.878131 61.253996-247.535429 102.824832-368.783699 104.084554-88.023095.787327-182.344802-128.806604-128.176743-225.647755 33.855036-60.7816 77.630386-117.469103 122.350527-148.96216 43.145488-31.807988 79.362504-44.720142 110.540631-44.877607zm0 0" fill="none" stroke="#212121" stroke-width="11.338583" transform="scale(.0248071)"/></svg>

<?xml version="1.0" encoding="UTF-8"?>
<svg xmlns="http://www.w3.org/2000/svg" xmlns:xlink="http://www.w3.org/1999/xlink" width="48pt" height="48pt" viewBox="0 0 48 48" version="1.1">
<defs>
<linearGradient id="linear0" gradientUnits="userSpaceOnUse" x1="254" y1="233.5" x2="254" y2="254.666672" gradientTransform="matrix(0.093759,0,0,0.093759,-0.00000572259,20.158178)">
<stop offset="0" style="stop-color:rgb(0%,0%,0%);stop-opacity:0.27451;"/>
<stop offset="1" style="stop-color:rgb(0%,0%,0%);stop-opacity:0;"/>
</linearGradient>
<radialGradient id="radial0" gradientUnits="userSpaceOnUse" cx="450.908936" cy="189.579361" fx="450.908936" fy="189.579361" r="21.166656" gradientTransform="matrix(0.000000261256,-0.117199,-0.210958,-0.000000152308,79.684395,95.392999)">
<stop offset="0" style="stop-color:rgb(0%,0%,0%);stop-opacity:0.313726;"/>
<stop offset="0.222222" style="stop-color:rgb(0%,0%,0%);stop-opacity:0.27451;"/>
<stop offset="1" style="stop-color:rgb(0%,0%,0%);stop-opacity:0;"/>
</radialGradient>
<radialGradient id="radial1" gradientUnits="userSpaceOnUse" cx="450.908936" cy="189.579361" fx="450.908936" fy="189.579361" r="21.166656" gradientTransform="matrix(-0.000000261256,0.117199,0.210958,0.000000152308,-31.80678,-11.291218)">
<stop offset="0" style="stop-color:rgb(0%,0%,0%);stop-opacity:0.313726;"/>
<stop offset="0.222222" style="stop-color:rgb(0%,0%,0%);stop-opacity:0.27451;"/>
<stop offset="1" style="stop-color:rgb(0%,0%,0%);stop-opacity:0;"/>
</radialGradient>
<radialGradient id="radial2" gradientUnits="userSpaceOnUse" cx="450.908936" cy="189.579361" fx="450.908936" fy="189.579361" r="21.166656" gradientTransform="matrix(-0.000000261256,-0.117199,0.210958,-0.000000152308,-31.80678,95.392999)">
<stop offset="0" style="stop-color:rgb(0%,0%,0%);stop-opacity:0.313726;"/>
<stop offset="0.222222" style="stop-color:rgb(0%,0%,0%);stop-opacity:0.27451;"/>
<stop offset="1" style="stop-color:rgb(0%,0%,0%);stop-opacity:0;"/>
</radialGradient>
<radialGradient id="radial3" gradientUnits="userSpaceOnUse" cx="450.908936" cy="189.579361" fx="450.908936" fy="189.579361" r="21.166656" gradientTransform="matrix(0.000000261256,0.117199,-0.210958,0.000000152308,79.684393,-11.291219)">
<stop offset="0" style="stop-color:rgb(0%,0%,0%);stop-opacity:0.313726;"/>
<stop offset="0.222222" style="stop-color:rgb(0%,0%,0%);stop-opacity:0.27451;"/>
<stop offset="1" style="stop-color:rgb(0%,0%,0%);stop-opacity:0;"/>
</radialGradient>
<linearGradient id="linear1" gradientUnits="userSpaceOnUse" x1="254" y1="233.5" x2="254" y2="-168.666672" gradientTransform="matrix(0.093759,0,0,0.093759,0,20.158174)">
<stop offset="0" style="stop-color:rgb(38.039216%,38.039216%,38.039216%);stop-opacity:1;"/>
<stop offset="1" style="stop-color:rgb(45.882353%,45.882353%,45.882353%);stop-opacity:1;"/>
</linearGradient>
<linearGradient id="linear2" gradientUnits="userSpaceOnUse" x1="254" y1="233.5" x2="254" y2="-168.666656" gradientTransform="matrix(0.093759,0,0,0.093759,0,20.158174)">
<stop offset="0" style="stop-color:rgb(83.137256%,88.235295%,34.117648%);stop-opacity:1;"/>
<stop offset="1" style="stop-color:rgb(86.274511%,90.588236%,45.882353%);stop-opacity:1;"/>
</linearGradient>
</defs>
<g id="surface1">
<path style=" stroke:none;fill-rule:nonzero;fill:url(#linear0);" d="M 7.691406 42.050781 L 40.1875 42.050781 L 40.1875 44.035156 L 7.691406 44.035156 Z M 7.691406 42.050781 "/>
<path style=" stroke:none;fill-rule:nonzero;fill:url(#radial0);" d="M 40.1875 42.050781 L 44.15625 42.050781 L 44.15625 40.066406 L 40.1875 40.066406 Z M 40.1875 42.050781 "/>
<path style=" stroke:none;fill-rule:nonzero;fill:url(#radial1);" d="M 7.691406 42.050781 L 3.722656 42.050781 L 3.722656 44.035156 L 7.691406 44.035156 Z M 7.691406 42.050781 "/>
<path style=" stroke:none;fill-rule:nonzero;fill:url(#radial2);" d="M 7.691406 42.050781 L 3.722656 42.050781 L 3.722656 40.066406 L 7.691406 40.066406 Z M 7.691406 42.050781 "/>
<path style=" stroke:none;fill-rule:nonzero;fill:url(#radial3);" d="M 40.1875 42.050781 L 44.15625 42.050781 L 44.15625 44.035156 L 40.1875 44.035156 Z M 40.1875 42.050781 "/>
<path style=" stroke:none;fill-rule:nonzero;fill:url(#linear1);" d="M 5.457031 4.34375 C 5.433594 4.34375 5.40625 4.34375 5.378906 4.347656 C 5.328125 4.347656 5.28125 4.355469 5.230469 4.359375 C 5.15625 4.371094 5.082031 4.390625 5.015625 4.410156 C 4.96875 4.425781 4.921875 4.441406 4.878906 4.460938 C 4.789062 4.5 4.703125 4.542969 4.625 4.597656 C 4.585938 4.625 4.546875 4.652344 4.507812 4.683594 C 4.472656 4.714844 4.4375 4.746094 4.402344 4.777344 C 4.371094 4.8125 4.339844 4.847656 4.308594 4.882812 C 4.292969 4.902344 4.277344 4.921875 4.265625 4.941406 C 4.234375 4.980469 4.207031 5.019531 4.183594 5.058594 C 4.148438 5.121094 4.113281 5.183594 4.085938 5.253906 C 4.078125 5.273438 4.066406 5.296875 4.058594 5.320312 C 4.050781 5.34375 4.042969 5.367188 4.035156 5.390625 C 4.027344 5.414062 4.023438 5.4375 4.015625 5.460938 C 4.003906 5.507812 3.992188 5.554688 3.984375 5.605469 C 3.984375 5.628906 3.980469 5.65625 3.976562 5.679688 C 3.972656 5.730469 3.96875 5.78125 3.96875 5.832031 L 3.96875 40.5625 C 3.96875 41.386719 4.632812 42.050781 5.457031 42.050781 L 42.171875 42.050781 C 42.996094 42.050781 43.660156 41.386719 43.660156 40.5625 L 43.660156 5.832031 C 43.660156 5.523438 43.566406 5.238281 43.40625 5 C 43.378906 4.960938 43.351562 4.921875 43.320312 4.882812 C 43.292969 4.847656 43.257812 4.8125 43.226562 4.777344 C 43.191406 4.746094 43.15625 4.714844 43.121094 4.683594 C 43.082031 4.652344 43.042969 4.625 43.003906 4.597656 C 42.925781 4.542969 42.839844 4.5 42.753906 4.460938 C 42.707031 4.441406 42.664062 4.425781 42.617188 4.410156 C 42.546875 4.390625 42.472656 4.371094 42.398438 4.359375 C 42.351562 4.355469 42.300781 4.347656 42.25 4.347656 C 42.222656 4.34375 42.199219 4.34375 42.171875 4.34375 Z M 5.457031 4.34375 "/>
<path style=" stroke:none;fill-rule:nonzero;fill:rgb(100%,100%,100%);fill-opacity:0.392157;" d="M 5.457031 4.441406 C 4.632812 4.441406 3.96875 5.105469 3.96875 5.929688 L 3.96875 6.175781 C 3.96875 5.351562 4.632812 4.6875 5.457031 4.6875 L 42.171875 4.6875 C 42.996094 4.6875 43.660156 5.351562 43.660156 6.175781 L 43.660156 5.929688 C 43.660156 5.105469 42.996094 4.441406 42.171875 4.441406 Z M 5.457031 4.441406 "/>
<path style=" stroke:none;fill-rule:nonzero;fill:rgb(1.176471%,1.176471%,1.176471%);fill-opacity:0.235294;" d="M 5.457031 41.90625 C 4.632812 41.90625 3.96875 41.242188 3.96875 40.417969 L 3.96875 40.171875 C 3.96875 40.996094 4.632812 41.660156 5.457031 41.660156 L 42.171875 41.660156 C 42.996094 41.660156 43.660156 40.996094 43.660156 40.171875 L 43.660156 40.417969 C 43.660156 41.242188 42.996094 41.90625 42.171875 41.90625 Z M 5.457031 41.90625 "/>
<path style=" stroke:none;fill-rule:nonzero;fill:rgb(12.941177%,12.941177%,12.941177%);fill-opacity:1;" d="M 5.457031 4.203125 C 4.558594 4.203125 3.828125 4.933594 3.828125 5.832031 L 3.828125 40.5625 C 3.828125 41.460938 4.558594 42.191406 5.457031 42.191406 L 42.171875 42.191406 C 43.070312 42.191406 43.800781 41.460938 43.800781 40.5625 L 43.800781 5.832031 C 43.800781 4.933594 43.070312 4.203125 42.171875 4.203125 Z M 5.457031 4.484375 L 42.171875 4.484375 C 42.921875 4.484375 43.519531 5.082031 43.519531 5.832031 L 43.519531 40.5625 C 43.519531 41.3125 42.921875 41.910156 42.171875 41.910156 L 5.457031 41.910156 C 4.707031 41.910156 4.109375 41.3125 4.109375 40.5625 L 4.109375 5.832031 C 4.109375 5.082031 4.707031 4.484375 5.457031 4.484375 Z M 5.457031 4.484375 "/>
<path style=" stroke:none;fill-rule:nonzero;fill:url(#linear2);" d="M 38.699219 13.402344 C 36.066406 15.40625 32.386719 18.550781 28.273438 21.285156 C 26.558594 17.851562 25.039062 13.980469 21.265625 13.484375 C 14.949219 12.660156 11.335938 18.21875 8.917969 23.570312 C 8.597656 24.28125 7.058594 27.554688 7.703125 29.675781 C 8.324219 31.714844 11.148438 31.28125 13.066406 30.8125 C 16.273438 30.03125 18.46875 29.121094 20.960938 27.6875 C 22.179688 26.976562 23.292969 26.304688 24.3125 25.667969 C 24.605469 26.113281 24.90625 26.554688 25.214844 26.980469 C 26.609375 28.910156 28.519531 30.859375 30.257812 31.121094 C 34.46875 31.410156 37.476562 28.238281 40.183594 25.273438 L 40.179688 25.269531 C 35.933594 27.492188 34.28125 27.363281 32.070312 26.148438 C 30.746094 25.417969 29.785156 24.089844 28.9375 22.554688 C 33.109375 19.496094 35.394531 16.953125 38.699219 13.402344 Z M 16.820312 16.347656 C 18.402344 16.34375 19.457031 17.675781 20.355469 19.027344 C 21.371094 20.710938 22.34375 22.476562 23.371094 24.171875 C 20.347656 25.691406 17.230469 26.722656 14.222656 26.753906 C 12.039062 26.773438 9.699219 23.558594 11.042969 21.15625 C 11.882812 19.648438 12.96875 18.242188 14.078125 17.460938 C 15.148438 16.671875 16.046875 16.351562 16.820312 16.347656 Z M 16.820312 16.347656 "/>
<path style=" stroke:none;fill-rule:nonzero;fill:rgb(100%,100%,100%);fill-opacity:0.588235;" d="M 38.699219 13.402344 C 36.066406 15.40625 32.386719 18.550781 28.273438 21.285156 C 26.558594 17.851562 25.039062 13.980469 21.265625 13.484375 C 14.949219 12.660156 11.335938 18.21875 8.917969 23.570312 C 8.632812 24.199219 7.386719 26.855469 7.566406 28.929688 C 7.707031 27.039062 8.671875 24.976562 8.917969 24.433594 C 11.335938 19.082031 14.949219 13.523438 21.265625 14.347656 C 25.039062 14.84375 26.558594 18.714844 28.273438 22.148438 C 30.957031 20.363281 33.445312 18.414062 35.589844 16.710938 C 36.585938 15.683594 37.582031 14.601562 38.699219 13.402344 Z M 10.675781 23.132812 C 10.394531 25.304688 12.363281 27.636719 14.222656 27.617188 C 17.230469 27.589844 20.347656 26.554688 23.371094 25.035156 C 23.238281 24.8125 23.101562 24.589844 22.972656 24.367188 C 20.074219 25.777344 17.097656 26.726562 14.222656 26.753906 C 12.609375 26.769531 10.910156 25.015625 10.675781 23.132812 Z M 29.285156 23.160156 C 29.171875 23.246094 29.054688 23.332031 28.9375 23.417969 C 29.785156 24.953125 30.746094 26.28125 32.070312 27.011719 C 34.003906 28.070312 35.511719 28.304688 38.695312 26.863281 C 39.207031 26.339844 39.699219 25.800781 40.183594 25.273438 L 40.179688 25.269531 C 35.933594 27.492188 34.28125 27.363281 32.070312 26.148438 C 30.921875 25.515625 30.050781 24.433594 29.285156 23.160156 Z M 29.285156 23.160156 "/>
<path style=" stroke:none;fill-rule:nonzero;fill:rgb(0%,0%,0%);fill-opacity:0.235294;" d="M 38.699219 14.308594 C 37.753906 15.027344 36.660156 15.902344 35.472656 16.847656 C 33.558594 18.8125 31.644531 20.582031 28.9375 22.566406 C 29.054688 22.78125 29.175781 22.988281 29.296875 23.191406 C 33.242188 20.25 35.488281 17.753906 38.699219 14.308594 Z M 16.820312 16.359375 C 16.046875 16.363281 15.148438 16.683594 14.078125 17.476562 C 12.96875 18.257812 11.882812 19.664062 11.042969 21.167969 C 10.691406 21.800781 10.59375 22.488281 10.679688 23.160156 C 10.730469 22.785156 10.847656 22.414062 11.042969 22.058594 C 11.882812 20.554688 12.96875 19.148438 14.078125 18.367188 C 17.332031 15.953125 19.015625 17.917969 20.355469 19.929688 C 21.234375 21.386719 22.082031 22.90625 22.957031 24.386719 C 23.097656 24.320312 23.234375 24.253906 23.371094 24.183594 C 22.34375 22.492188 21.371094 20.722656 20.355469 19.039062 C 19.457031 17.6875 18.402344 16.355469 16.820312 16.359375 Z M 24.3125 25.679688 C 23.292969 26.320312 22.179688 26.988281 20.960938 27.703125 C 18.46875 29.132812 16.273438 30.042969 13.066406 30.828125 C 11.148438 31.292969 8.324219 31.730469 7.703125 29.691406 C 7.632812 29.457031 7.589844 29.210938 7.566406 28.953125 C 7.523438 29.527344 7.554688 30.085938 7.703125 30.582031 C 8.324219 32.621094 11.148438 32.1875 13.066406 31.71875 C 16.273438 30.9375 18.46875 30.023438 20.960938 28.59375 C 22.179688 27.878906 23.292969 27.210938 24.3125 26.570312 C 24.605469 27.019531 24.90625 27.457031 25.214844 27.882812 C 26.609375 29.8125 28.519531 31.765625 30.257812 32.027344 C 34.46875 32.3125 37.476562 29.144531 40.183594 26.175781 L 40.179688 26.175781 C 39.628906 26.464844 39.121094 26.710938 38.648438 26.925781 C 36.328125 29.304688 33.691406 31.371094 30.257812 31.136719 C 28.519531 30.875 26.609375 28.921875 25.214844 26.992188 C 24.90625 26.566406 24.605469 26.128906 24.3125 25.679688 Z M 24.3125 25.679688 "/>
<path style="fill:none;stroke-width:11.338583;stroke-linecap:butt;stroke-linejoin:miter;stroke:rgb(12.941177%,12.941177%,12.941177%);stroke-opacity:1;stroke-miterlimit:4;" d="M 1560.008589 540.263396 C 1453.876986 621.043088 1305.544687 747.802643 1139.73374 858.028344 C 1070.60648 719.616357 1009.352484 563.568259 857.241017 543.570167 C 602.61965 510.344992 456.96426 734.418094 359.493248 950.145536 C 346.581095 978.804218 284.539772 1110.760128 310.521544 1196.263778 C 335.558525 1278.460657 449.405926 1260.982011 526.721382 1242.086176 C 656.000382 1210.593119 744.495872 1173.903708 844.958725 1116.113948 C 894.087894 1087.455265 938.965501 1060.371236 980.06394 1034.704395 C 991.873837 1052.655437 1003.998664 1070.449015 1016.438421 1087.612731 C 1072.653529 1165.400582 1149.654053 1243.97576 1219.726106 1254.525934 C 1389.473684 1266.178365 1510.721954 1138.316553 1619.845398 1018.800401 L 1619.687932 1018.642935 C 1448.523166 1108.240683 1381.91535 1103.044329 1292.789999 1054.072625 C 1239.409267 1024.626616 1200.672806 971.088419 1166.502839 909.204562 C 1334.675765 785.909243 1426.792957 683.399341 1560.008589 540.263396 Z M 678.045522 658.992222 C 741.818963 658.834757 784.33459 712.530419 820.551606 767.013408 C 861.49258 834.880947 900.701436 906.055256 942.114806 974.39519 C 820.236675 1035.649186 694.579377 1077.220022 573.331107 1078.479744 C 485.308012 1079.267071 390.986305 949.67314 445.154364 852.831989 C 479.0094 792.050389 522.78475 735.362886 567.504891 703.869829 C 610.650379 672.061841 646.867395 659.149687 678.045522 658.992222 Z M 678.045522 658.992222 " transform="matrix(0.0248071,0,0,0.0248071,0,0)"/>
</g>
</svg>
